X: 2313
T: Badger, The
R: slip jig
M: 9/8
K: Amajor
|:CzF AFA cBA|B,zG AGA BAG|F3- F2E CEG|F3- F2E FEB,|
CzF AFA cBA|B,zG AGA BAG|F3- F2E DAB||1 [M:6/8] cBA BGA:|2 [M:9/8] cBA BGA Bce||
|:BcA BAG Ace|D3- DAB cBA|BcA Bce fac|B3- BAd cBA|
BcA BAG Ace|D3- DAB cBA|F3 F2E DAB|[M:6/8] cBA BGA:|

